Newaita-dark/apps/22/clamav.svg

<?xml version="1.0" encoding="UTF-8"?>
<svg xmlns="http://www.w3.org/2000/svg" xmlns:xlink="http://www.w3.org/1999/xlink" width="22pt" height="22pt" viewBox="0 0 22 22" version="1.1">
<defs>
<radialGradient id="radial0" gradientUnits="userSpaceOnUse" cx="450.908936" cy="189.579361" fx="450.908936" fy="189.579361" r="21.166656" gradientTransform="matrix(0.000000119742,-0.0537161,-0.0966889,-0.0000000698078,29.927473,43.721789)">
<stop offset="0" style="stop-color:rgb(0%,0%,0%);stop-opacity:0.313725;"/>
<stop offset="0.222222" style="stop-color:rgb(0%,0%,0%);stop-opacity:0.27451;"/>
<stop offset="1" style="stop-color:rgb(0%,0%,0%);stop-opacity:0;"/>
</radialGradient>
<radialGradient id="radial1" gradientUnits="userSpaceOnUse" cx="450.908936" cy="189.579361" fx="450.908936" fy="189.579361" r="21.166656" gradientTransform="matrix(-0.000000119742,0.0537161,0.0966889,0.0000000698078,-8.097263,-5.175144)">
<stop offset="0" style="stop-color:rgb(0%,0%,0%);stop-opacity:0.313725;"/>
<stop offset="0.222222" style="stop-color:rgb(0%,0%,0%);stop-opacity:0.27451;"/>
<stop offset="1" style="stop-color:rgb(0%,0%,0%);stop-opacity:0;"/>
</radialGradient>
<radialGradient id="radial2" gradientUnits="userSpaceOnUse" cx="450.908936" cy="189.579361" fx="450.908936" fy="189.579361" r="21.166656" gradientTransform="matrix(-0.000000119742,-0.0537161,0.0966889,-0.0000000698078,-8.097263,43.721789)">
<stop offset="0" style="stop-color:rgb(0%,0%,0%);stop-opacity:0.313725;"/>
<stop offset="0.222222" style="stop-color:rgb(0%,0%,0%);stop-opacity:0.27451;"/>
<stop offset="1" style="stop-color:rgb(0%,0%,0%);stop-opacity:0;"/>
</radialGradient>
<radialGradient id="radial3" gradientUnits="userSpaceOnUse" cx="450.908936" cy="189.579361" fx="450.908936" fy="189.579361" r="21.166656" gradientTransform="matrix(0.000000119742,0.0537161,-0.0966889,0.0000000698078,29.927472,-5.175144)">
<stop offset="0" style="stop-color:rgb(0%,0%,0%);stop-opacity:0.313725;"/>
<stop offset="0.222222" style="stop-color:rgb(0%,0%,0%);stop-opacity:0.27451;"/>
<stop offset="1" style="stop-color:rgb(0%,0%,0%);stop-opacity:0;"/>
</radialGradient>
<linearGradient id="linear0" gradientUnits="userSpaceOnUse" x1="255.323059" y1="233.5" x2="255.323044" y2="254.666656" gradientTransform="matrix(0.00918504,0,0,0.0429729,8.569953,9.239164)">
<stop offset="0" style="stop-color:rgb(0%,0%,0%);stop-opacity:0.27451;"/>
<stop offset="1" style="stop-color:rgb(0%,0%,0%);stop-opacity:0;"/>
</linearGradient>
<linearGradient id="linear1" gradientUnits="userSpaceOnUse" x1="600" y1="1135.118164" x2="600" y2="695.118103" gradientTransform="matrix(0.264583,0,0,0.264583,10.583336,-204.416428)">
<stop offset="0" style="stop-color:rgb(87.843137%,87.843137%,87.843137%);stop-opacity:1;"/>
<stop offset="1" style="stop-color:rgb(93.333333%,93.333333%,93.333333%);stop-opacity:1;"/>
</linearGradient>
<linearGradient id="linear2" gradientUnits="userSpaceOnUse" x1="680" y1="1135.118164" x2="680" y2="775.118103" gradientTransform="matrix(0.866025,0.5,-0.5,0.866025,643.238697,-197.414354)">
<stop offset="0" style="stop-color:rgb(25.882353%,25.882353%,25.882353%);stop-opacity:1;"/>
<stop offset="1" style="stop-color:rgb(38.039216%,38.039216%,38.039216%);stop-opacity:1;"/>
</linearGradient>
<linearGradient id="linear3" gradientUnits="userSpaceOnUse" x1="600" y1="1135.118164" x2="600" y2="695.118103" gradientTransform="matrix(0.264583,0,0,0.264583,10.583336,-204.416428)">
<stop offset="0" style="stop-color:rgb(87.843137%,87.843137%,87.843137%);stop-opacity:1;"/>
<stop offset="1" style="stop-color:rgb(93.333333%,93.333333%,93.333333%);stop-opacity:1;"/>
</linearGradient>
<linearGradient id="linear4" gradientUnits="userSpaceOnUse" x1="680" y1="1135.118164" x2="680" y2="775.118103" gradientTransform="matrix(0.866025,0.5,-0.5,0.866025,643.238697,-197.414354)">
<stop offset="0" style="stop-color:rgb(25.882353%,25.882353%,25.882353%);stop-opacity:1;"/>
<stop offset="1" style="stop-color:rgb(38.039216%,38.039216%,38.039216%);stop-opacity:1;"/>
</linearGradient>
</defs>
<g id="surface1">
<path style=" stroke:none;fill-rule:nonzero;fill:url(#radial0);" d="M 11.824219 19.273438 L 13.644531 19.273438 L 13.644531 18.363281 L 11.824219 18.363281 Z M 11.824219 19.273438 "/>
<path style=" stroke:none;fill-rule:nonzero;fill:url(#radial1);" d="M 10.003906 19.273438 L 8.1875 19.273438 L 8.1875 20.183594 L 10.003906 20.183594 Z M 10.003906 19.273438 "/>
<path style=" stroke:none;fill-rule:nonzero;fill:url(#radial2);" d="M 10.003906 19.273438 L 8.1875 19.273438 L 8.1875 18.363281 L 10.003906 18.363281 Z M 10.003906 19.273438 "/>
<path style=" stroke:none;fill-rule:nonzero;fill:url(#radial3);" d="M 11.824219 19.273438 L 13.644531 19.273438 L 13.644531 20.183594 L 11.824219 20.183594 Z M 11.824219 19.273438 "/>
<path style=" stroke:none;fill-rule:nonzero;fill:url(#linear0);" d="M 10.003906 19.273438 L 11.824219 19.273438 L 11.824219 20.183594 L 10.003906 20.183594 Z M 10.003906 19.273438 "/>
<path style=" stroke:none;fill-rule:nonzero;fill:rgb(93.72549%,32.54902%,31.372549%);fill-opacity:1;" d="M 10.914062 1.992188 C 8.652344 1.992188 6.601562 2.851562 5.0625 4.261719 C 4.144531 3.65625 3.316406 2.847656 2.59375 2.125 C 2.507812 2.039062 2.390625 1.988281 2.265625 1.992188 C 2.019531 1.996094 1.820312 2.199219 1.820312 2.445312 C 1.820312 3.898438 1.824219 5.746094 2.796875 7.652344 C 2.460938 8.578125 2.273438 9.582031 2.273438 10.632812 C 2.273438 15.417969 6.128906 19.273438 10.914062 19.273438 C 15.703125 19.273438 19.554688 15.417969 19.554688 10.632812 C 19.554688 9.582031 19.371094 8.574219 19.027344 7.644531 C 20 5.742188 20.003906 3.894531 20.003906 2.445312 C 20.003906 2.199219 19.804688 1.996094 19.554688 1.992188 C 19.433594 1.988281 19.316406 2.039062 19.226562 2.125 C 18.507812 2.84375 17.679688 3.65625 16.761719 4.261719 C 15.226562 2.851562 13.175781 1.992188 10.914062 1.992188 Z M 10.914062 1.992188 "/>
<path style=" stroke:none;fill-rule:nonzero;fill:rgb(0%,0%,0%);fill-opacity:0.196078;" d="M 10.914062 19.273438 C 6.128906 19.273438 2.273438 15.417969 2.273438 10.632812 C 2.273438 10.605469 2.273438 10.574219 2.273438 10.546875 C 2.320312 15.296875 6.15625 19.105469 10.914062 19.105469 C 15.675781 19.105469 19.511719 15.296875 19.554688 10.546875 C 19.554688 10.574219 19.554688 10.605469 19.554688 10.632812 C 19.554688 15.417969 15.703125 19.273438 10.914062 19.273438 Z M 10.914062 19.273438 "/>
<path style="fill-rule:nonzero;fill:url(#linear1);stroke-width:3;stroke-linecap:round;stroke-linejoin:round;stroke:rgb(12.941177%,12.941177%,12.941177%);stroke-opacity:1;stroke-miterlimit:4;" d="M 149.89478 -23.654636 C 129.98759 -12.928388 116.443429 8.069607 116.443429 32.430917 C 116.443429 67.609376 144.713457 95.879403 179.891915 95.879403 C 215.070374 95.879403 243.431302 67.609376 243.431302 32.430917 C 202.798819 32.430917 167.71126 9.796715 149.89478 -23.654636 Z M 149.89478 -23.654636 " transform="matrix(0.0429729,0,0,0.0429729,-0.000000143243,9.239163)"/>
<path style="fill-rule:nonzero;fill:url(#linear2);stroke-width:11.338581;stroke-linecap:round;stroke-linejoin:round;stroke:rgb(12.941177%,12.941177%,12.941177%);stroke-opacity:1;stroke-miterlimit:4;" d="M 698.458761 868.521258 C 694.679595 874.018228 691.243988 879.515198 687.808382 885.012168 C 640.740577 966.779596 657.575047 1067.099299 722.851566 1129.627332 C 713.231868 1055.074677 726.974293 977.429976 767.170886 907.687169 C 767.514447 907.000048 768.201568 906.312926 768.545129 905.625805 C 743.808764 895.662547 720.446641 883.294365 698.458761 868.521258 Z M 698.458761 868.521258 " transform="matrix(0.0113699,0,0,0.0113699,-0.000000143243,0)"/>
<path style=" stroke:none;fill-rule:nonzero;fill:rgb(100%,100%,100%);fill-opacity:0.392157;" d="M 10.914062 1.992188 C 7.4375 1.992188 4.457031 4.023438 3.082031 6.96875 C 4.339844 4.667969 6.578125 2.988281 9.246094 2.488281 C 9.785156 2.382812 10.34375 2.328125 10.914062 2.328125 C 11.488281 2.328125 12.042969 2.382812 12.585938 2.488281 C 15.25 2.988281 17.492188 4.667969 18.75 6.96875 C 17.375 4.023438 14.390625 1.992188 10.914062 1.992188 Z M 10.914062 1.992188 "/>
<path style="fill-rule:nonzero;fill:url(#linear3);stroke-width:3;stroke-linecap:round;stroke-linejoin:round;stroke:rgb(12.941177%,12.941177%,12.941177%);stroke-opacity:1;stroke-miterlimit:4;" d="M 149.943284 -23.654636 C 129.945193 -12.928387 116.401032 8.069607 116.401032 32.430917 C 116.401032 67.609376 144.76196 95.879404 179.940419 95.879404 C 215.118878 95.879404 243.388905 67.609376 243.388905 32.430917 C 202.847322 32.430917 167.668864 9.796715 149.943284 -23.654636 Z M 149.943284 -23.654636 " transform="matrix(-0.0429729,0,0,0.0429729,21.830209,9.239163)"/>
<path style="fill-rule:nonzero;fill:url(#linear4);stroke-width:11.338581;stroke-linecap:round;stroke-linejoin:round;stroke:rgb(12.941177%,12.941177%,12.941177%);stroke-opacity:1;stroke-miterlimit:4;" d="M 698.642082 868.521259 C 694.862915 874.018229 691.427309 879.515199 687.991703 885.012169 C 640.923897 966.779598 657.414807 1067.0993 722.691326 1129.627333 C 713.071628 1055.074678 727.157614 977.429977 767.354207 907.68717 C 767.697768 907.000049 768.041328 906.312928 768.384889 905.625806 C 743.992085 895.662548 720.286401 883.294366 698.642082 868.521259 Z M 698.642082 868.521259 " transform="matrix(-0.0113699,0,0,0.0113699,21.830209,-0.0000000143243)"/>
<path style=" stroke:none;fill-rule:nonzero;fill:rgb(12.941177%,12.941177%,12.941177%);fill-opacity:1;" d="M 10.914062 1.925781 C 8.65625 1.925781 6.605469 2.78125 5.058594 4.179688 C 4.164062 3.585938 3.351562 2.789062 2.640625 2.078125 C 2.542969 1.980469 2.40625 1.925781 2.265625 1.925781 C 1.984375 1.929688 1.753906 2.164062 1.753906 2.445312 C 1.753906 3.890625 1.757812 5.746094 2.730469 7.65625 C 2.394531 8.582031 2.210938 9.585938 2.210938 10.632812 C 2.210938 15.453125 6.09375 19.335938 10.914062 19.335938 C 15.738281 19.335938 19.621094 15.453125 19.621094 10.632812 C 19.621094 9.582031 19.4375 8.578125 19.097656 7.648438 C 20.0625 5.742188 20.070312 3.890625 20.070312 2.445312 C 20.070312 2.164062 19.839844 1.929688 19.558594 1.925781 C 19.417969 1.925781 19.28125 1.980469 19.183594 2.078125 C 18.472656 2.789062 17.664062 3.582031 16.769531 4.179688 C 15.222656 2.777344 13.171875 1.925781 10.914062 1.925781 Z M 10.914062 2.054688 C 13.160156 2.054688 15.195312 2.90625 16.71875 4.308594 L 16.757812 4.339844 L 16.796875 4.3125 C 17.722656 3.703125 18.550781 2.890625 19.273438 2.167969 C 19.347656 2.09375 19.449219 2.054688 19.554688 2.054688 C 19.769531 2.058594 19.941406 2.230469 19.941406 2.445312 C 19.941406 3.894531 19.933594 5.730469 18.972656 7.613281 L 18.957031 7.636719 L 18.96875 7.664062 C 19.308594 8.589844 19.492188 9.589844 19.492188 10.632812 C 19.492188 15.386719 15.667969 19.207031 10.914062 19.207031 C 6.164062 19.207031 2.339844 15.386719 2.339844 10.632812 C 2.339844 9.589844 2.523438 8.59375 2.859375 7.671875 L 2.867188 7.644531 L 2.855469 7.621094 C 1.890625 5.734375 1.882812 3.898438 1.882812 2.445312 C 1.882812 2.230469 2.054688 2.058594 2.269531 2.054688 C 2.375 2.054688 2.476562 2.09375 2.550781 2.167969 C 3.273438 2.890625 4.101562 3.707031 5.027344 4.316406 L 5.070312 4.34375 L 5.109375 4.308594 C 6.632812 2.910156 8.671875 2.054688 10.914062 2.054688 Z M 10.914062 2.054688 "/>
</g>
</svg>

<svg xmlns="http://www.w3.org/2000/svg" width="22pt" height="22pt" viewBox="0 0 22 22"><defs><radialGradient id="a" gradientUnits="userSpaceOnUse" cx="450.909" cy="189.579" fx="450.909" fy="189.579" r="21.167" gradientTransform="matrix(0 -.05372 -.09669 0 29.927 43.722)"><stop offset="0" stop-opacity=".314"/><stop offset=".222" stop-opacity=".275"/><stop offset="1" stop-opacity="0"/></radialGradient><radialGradient id="b" gradientUnits="userSpaceOnUse" cx="450.909" cy="189.579" fx="450.909" fy="189.579" r="21.167" gradientTransform="matrix(0 .05372 .09669 0 -8.097 -5.175)"><stop offset="0" stop-opacity=".314"/><stop offset=".222" stop-opacity=".275"/><stop offset="1" stop-opacity="0"/></radialGradient><radialGradient id="c" gradientUnits="userSpaceOnUse" cx="450.909" cy="189.579" fx="450.909" fy="189.579" r="21.167" gradientTransform="matrix(0 -.05372 .09669 0 -8.097 43.722)"><stop offset="0" stop-opacity=".314"/><stop offset=".222" stop-opacity=".275"/><stop offset="1" stop-opacity="0"/></radialGradient><radialGradient id="d" gradientUnits="userSpaceOnUse" cx="450.909" cy="189.579" fx="450.909" fy="189.579" r="21.167" gradientTransform="matrix(0 .05372 -.09669 0 29.927 -5.175)"><stop offset="0" stop-opacity=".314"/><stop offset=".222" stop-opacity=".275"/><stop offset="1" stop-opacity="0"/></radialGradient><linearGradient id="e" gradientUnits="userSpaceOnUse" x1="255.323" y1="233.5" x2="255.323" y2="254.667" gradientTransform="matrix(.00919 0 0 .04297 8.57 9.24)"><stop offset="0" stop-opacity=".275"/><stop offset="1" stop-opacity="0"/></linearGradient><linearGradient id="f" gradientUnits="userSpaceOnUse" x1="600" y1="1135.118" x2="600" y2="695.118" gradientTransform="matrix(.26458 0 0 .26458 10.583 -204.416)"><stop offset="0" stop-color="#e0e0e0"/><stop offset="1" stop-color="#eee"/></linearGradient><linearGradient id="g" gradientUnits="userSpaceOnUse" x1="680" y1="1135.118" x2="680" y2="775.118" gradientTransform="rotate(30 690 1101.592)"><stop offset="0" stop-color="#424242"/><stop offset="1" stop-color="#616161"/></linearGradient><linearGradient id="h" gradientUnits="userSpaceOnUse" x1="600" y1="1135.118" x2="600" y2="695.118" gradientTransform="matrix(.26458 0 0 .26458 10.583 -204.416)"><stop offset="0" stop-color="#e0e0e0"/><stop offset="1" stop-color="#eee"/></linearGradient><linearGradient id="i" gradientUnits="userSpaceOnUse" x1="680" y1="1135.118" x2="680" y2="775.118" gradientTransform="rotate(30 690 1101.592)"><stop offset="0" stop-color="#424242"/><stop offset="1" stop-color="#616161"/></linearGradient></defs><path d="M11.824 19.273h1.82v-.91h-1.82zm0 0" fill="url(#a)"/><path d="M10.004 19.273H8.188v.91h1.816zm0 0" fill="url(#b)"/><path d="M10.004 19.273H8.188v-.91h1.816zm0 0" fill="url(#c)"/><path d="M11.824 19.273h1.82v.91h-1.82zm0 0" fill="url(#d)"/><path d="M10.004 19.273h1.82v.91h-1.82zm0 0" fill="url(#e)"/><path d="M10.914 1.992c-2.262 0-4.312.86-5.851 2.27-.918-.606-1.747-1.414-2.47-2.137a.454.454 0 0 0-.773.32c0 1.453.004 3.301.977 5.207a8.723 8.723 0 0 0-.524 2.98 8.624 8.624 0 0 0 8.641 8.641c4.79 0 8.64-3.855 8.64-8.64 0-1.051-.183-2.059-.527-2.988.973-1.903.977-3.75.977-5.2a.455.455 0 0 0-.777-.32c-.72.719-1.547 1.531-2.465 2.137a8.607 8.607 0 0 0-5.848-2.27zm0 0" fill="#ef5350"/><path d="M10.914 19.273a8.624 8.624 0 0 1-8.64-8.64v-.086a8.624 8.624 0 0 0 8.64 8.558 8.62 8.62 0 0 0 8.64-8.558v.086a8.621 8.621 0 0 1-8.64 8.64zm0 0" fill-opacity=".196"/><path d="M149.895-23.655c-19.907 10.727-33.452 31.725-33.452 56.086a63.274 63.274 0 0 0 63.449 63.448c35.178 0 63.54-28.27 63.54-63.448-40.633 0-75.72-22.634-93.537-56.086zm0 0" transform="matrix(.04297 0 0 .04297 0 9.24)" fill="url(#f)" stroke-width="3" stroke-linecap="round" stroke-linejoin="round" stroke="#212121"/><path d="M698.459 868.521c-3.78 5.497-7.215 10.994-10.65 16.491-47.068 81.768-30.234 182.087 35.043 244.615-9.62-74.552 4.122-152.197 44.319-221.94.343-.687 1.03-1.374 1.374-2.061-24.736-9.963-48.098-22.332-70.086-37.105zm0 0" transform="matrix(.01137 0 0 .01137 0 0)" fill="url(#g)" stroke-width="11.339" stroke-linecap="round" stroke-linejoin="round" stroke="#212121"/><path d="M10.914 1.992A8.62 8.62 0 0 0 3.082 6.97a8.897 8.897 0 0 1 6.164-4.48 8.728 8.728 0 0 1 3.34 0 8.905 8.905 0 0 1 6.164 4.48 8.626 8.626 0 0 0-7.836-4.977zm0 0" fill="#fff" fill-opacity=".392"/><path d="M149.943-23.655c-19.998 10.727-33.542 31.725-33.542 56.086 0 35.178 28.361 63.448 63.54 63.448a63.274 63.274 0 0 0 63.448-63.448c-40.542 0-75.72-22.634-93.446-56.086zm0 0" transform="matrix(-.04297 0 0 .04297 21.83 9.24)" fill="url(#h)" stroke-width="3" stroke-linecap="round" stroke-linejoin="round" stroke="#212121"/><path d="M698.642 868.521c-3.78 5.497-7.215 10.994-10.65 16.491a199.935 199.935 0 0 0 34.7 244.615c-9.62-74.552 4.466-152.197 44.662-221.94l1.03-2.061c-24.392-9.963-48.098-22.332-69.742-37.105zm0 0" transform="matrix(-.01137 0 0 .01137 21.83 0)" fill="url(#i)" stroke-width="11.339" stroke-linecap="round" stroke-linejoin="round" stroke="#212121"/><path d="M10.914 1.926A8.699 8.699 0 0 0 5.06 4.18c-.895-.594-1.707-1.39-2.418-2.102a.532.532 0 0 0-.375-.152.523.523 0 0 0-.512.52c0 1.445.004 3.3.976 5.21a8.716 8.716 0 0 0-.52 2.977 8.686 8.686 0 0 0 8.704 8.703 8.686 8.686 0 0 0 8.707-8.703 8.67 8.67 0 0 0-.523-2.985c.965-1.906.972-3.757.972-5.203a.523.523 0 0 0-.511-.52.532.532 0 0 0-.375.153c-.711.711-1.52 1.504-2.414 2.102a8.68 8.68 0 0 0-5.856-2.254zm0 .129a8.53 8.53 0 0 1 5.805 2.254l.039.03.039-.027c.926-.609 1.754-1.421 2.476-2.144a.391.391 0 0 1 .668.277c0 1.45-.007 3.285-.968 5.168l-.016.024.012.027c.34.926.523 1.926.523 2.969a8.554 8.554 0 0 1-8.578 8.574 8.553 8.553 0 0 1-8.574-8.574c0-1.043.183-2.04.52-2.961l.007-.027-.012-.024c-.964-1.887-.972-3.723-.972-5.176a.391.391 0 0 1 .668-.277c.722.723 1.55 1.539 2.476 2.148l.043.028.04-.035a8.555 8.555 0 0 1 5.804-2.254zm0 0" fill="#212121"/></svg>
